X: 71
T: No_63_Song_Used_in_Treatment_of_Sick_(l).krn
N: Derived from No_63_Song_Used_in_Treatment_of_Sick_(l).krn
%%abc-version 2.0
%%abcx-abcm2ps-target-version 5.9.1 (29 Sep 2008)
%%abc-creator hum2abc beta
%%abcx-conversion-date 2019/03/15 08:36:49
%%humdrum-veritas 3247190928
%%humdrum-veritas-data 4042844644
%%linebreak <none>
%%barnumbers 0
L: 1/8
M: 3/4
K: C clef=treble
[K:clef=treble][M:3/4]GG EE EE ||  
[M:2/4]GG DC | 
CC CC ||  
[M:3/4]EE DD CC ||  
[M:2/4]DD DD | 
CCC2 | 
C4 | 
D2C2 ||  
[M:3/4]CC CCC2 ||  
[M:2/4]C2C2 | 
GG GG ||  
[M:3/4]GEE2z2 | 
c (3c/G/F/ E/E/E G (3G/E/D/ ||  
[M:2/4]ED CC ||  
[M:3/4]CC CC DC/C/ | 
G,2G,G,G,2 | 
DD CC CC ||  
[M:2/4]DD DC ||  
[M:3/4]C2CCC2 ||  
[M:2/4]D2CC | 
CCC2 | 
C4 |]  



